X:1
T:What Have You Done for Jesus?
T:What Have You Done for Jesus?
T:Kate C. Hinkle
T:Kate C. Hinkle, 1911
T:Public Domain Courtesy of the Cyber Hymnal™
T:Public Domain Courtesy of the Cyber Hymnal™
C:Kate C. Hinkle
Z:Public Domain
Z:Courtesy of the Cyber Hymnal™
%%score ( 1 2 ) ( 3 4 )
L:1/8
Q:1/4=150
M:6/4
K:Ab
V:1 treble 
V:2 treble 
V:3 bass 
V:4 bass 
V:1
 [Ec]2 [=D=B]2 [Ec]2 [CA]4 [_GA]2 | [FA]6 [DF]4 [DF]2 | [CE]4 [Ec]2 (c2 B2) [_DF]2 | B6- [EB]4 z2 | %4
w: 1.~Have you done aught for|Je- sus Who|did so much * for|thee? He|
w: 2.~What have you giv- en,|bro- ther? God|gave His on- * ly|Son, His|
w: 3.~Have you left aught for|Je- sus, Loved|ones, hous- es * or|lands? Great|
 [Ec]2 [=D=B]2 [Ec]2 [CA]4 [_GA]2 | [FA]6 [DF]4 [B,F]2 | ([CE]2 [Ec]2) [CE]2 ([B,D]2 [DB]2) [DG]2 | %7
w: * left a roy- al|pal- ace And|died * for you * and|
w: * whole life- time to|suf- fer For|sin, * by death, * a-|
w: * is the prom- ise|to us A|hun- * dred- fold * re-|
 [CA]6- [CA]4 z2 | [Ec]2 [=D=B]2 [Ec]2 A6 | [FA]2 [=EG]2 [FA]2 [DF]4 [DF]2 | %10
w: me; *|What have you done?|What have you done? Oh,|
w: tone; *|What have you giv-|What have you giv’n? Your|
w: turn; *|What have you left?|What have you left? The|
 [CE]2 [Ec]2 [Ec]2 (c2 B2) [_DF]2 | B6- [EB]4 z2 | [Ec]2 [=D=B]2 [Ec]2 [CA]4 [_GA]2 | %13
w: mea- sure your life * by|His; He|* tramped this world a|
w: child- ren, your tal- * ents,|all? Give|* Him each gold- en|
w: world and its van- * i-|ties? He|* left a heav- en’s|
 [FA]6 [DF]4 z2 | [=DB]2 [D=A]2 [DB]2 (F2 G2) [D_A]2 | [DA]6 [DG]4 z2 | %16
w: strang- er,|And day by day * in|dang- er;|
w: mo- ment,|As with bright gems * you’ve|sown it,|
w: glor- ies|And joys, un- dreamed * of|by us;|
 [CA]2 [DG]2 [CA]2 ([Ec]2 [=D=B]2) [Ec]2 | [_Ge]6 [Fd]4 [FB]2 | ([Ec]2 [CE]2) [Ed]2 [DB]4 [DG]2 | %19
w: Would you do that, * my|hear- er, For|Him * or one of|
w: Your mon- ey, tho’ts * and|deeds all, For|His * use ev- er-|
w: Leave all, take your * cross|dai- ly, Fol-|low * Him ev- er-|
 [CA]6- [CA]4 z2 |] %20
w: His? *|
w: more. *|
w: more. *|
V:2
 x12 | x12 | x6 =D4 x2 | E2 G2 F2 x6 | x12 | x12 | x12 | x12 | x6 (C4 _G2) | x12 | x6 =D4 x2 | %11
w: ||||||||* ~|||
w: ||||||||* en?|||
w: ||||||||* ~|||
 E2 G2 F2 x6 | x12 | x12 | x6 =D4 x2 | x12 | x12 | x12 | x12 | x12 |] %20
w: |||||||||
w: |||||||||
w: |||||||||
V:3
 [A,,A,]2 [A,,A,]2 [A,,A,]2 [A,,E,]4 [C,A,]2 | [F,D]6 [D,A,]4 [D,A,]2 | %2
 [A,,A,]4 [A,,A,]2 [B,,A,]4 [B,,A,]2 | (G,2 B,2 A,2 [E,G,]4) z2 | %4
 [A,,A,]2 [A,,A,]2 [A,,A,]2 [A,,E,]4 [C,A,]2 | [D,D]6 [D,A,]4 [=D,A,]2 | %6
 [E,A,]4 [E,A,]2 [E,G,]4 E,2 | [A,,E,]6- [A,,E,]4 z2 | %8
 [A,,A,]2 [A,,A,]2 [A,,A,]2 [A,,E,]4 [C,A,]2 | [D,D]2 [D,D]2 [D,D]2 [D,A,]4 [D,A,]2 | %10
 [A,,A,]2 [A,,A,]2 [A,,A,]2 [B,,A,]4 [B,,A,]2 | (G,2 B,2 A,2 [E,G,]4) z2 | %12
 [A,,A,]2 [A,,A,]2 [A,,A,]2 [A,,E,]4 [C,A,]2 | [D,D]6 [D,A,]4 z2 | %14
 [B,,A,]2 [B,,A,]2 [B,,A,]2 [B,,A,]4 [B,,B,]2 | [E,B,]6 [E,B,]4 z2 | %16
 [A,,A,]2 [A,,E,]2 [A,,A,]2 A,4 A,2 | [C,A,]6 [D,A,]4 [D,A,]2 | [E,A,]4 [E,A,]2 [E,G,]4 E,2 | %19
 [A,,E,]6- [A,,E,]4 z2 |] %20
V:4
 x12 | x12 | x12 | E,6- x6 | x12 | x12 | x10 E,2 | x12 | x12 | x12 | x12 | E,6- x6 | x12 | x12 | %14
 x12 | x12 | x6 A,4 A,2 | x12 | x10 E,2 | x12 |] %20

